packages/kaspersky-hexa-ui-icons/src/iconsSVGs/16/BookmarkOutline.svg

<svg width="16" height="16" viewBox="0 0 16 16" fill="none" xmlns="http://www.w3.org/2000/svg">
<path fill-rule="evenodd" clip-rule="evenodd" d="M4.8 3.31709V12.1222L6.80415 10.3407C7.48614 9.73451 8.51386 9.73451 9.19585 10.3407L11.2 12.1222V3.31709H4.8ZM12.5 2.51709C12.5 2.24095 12.2761 2.01709 12 2.01709H4C3.72386 2.01709 3.5 2.24095 3.5 2.51709V13.9037C3.5 14.3351 4.00973 14.564 4.33218 14.2774L7.66782 11.3124C7.85726 11.144 8.14274 11.144 8.33218 11.3124L11.6678 14.2774C11.9903 14.564 12.5 14.3351 12.5 13.9037V2.51709Z" fill="black"/>
</svg>

<svg xmlns="http://www.w3.org/2000/svg" width="16" height="16" fill="none" viewBox="0 0 16 16"><path fill="#000" fill-rule="evenodd" d="M4.8 3.3v8.8051l2.0041-1.7815c.682-.6062 1.7098-.6062 2.3918 0L11.2 12.1051V3.3zm7.7-.8A.5.5 0 0 0 12 2H4a.5.5 0 0 0-.5.5v11.3866c0 .4314.5097.6603.8322.3737l3.3356-2.965a.5.5 0 0 1 .6644 0l3.3356 2.965c.3225.2866.8322.0577.8322-.3737z"/></svg>
